X: 29977
T: Ocean Child
R: reel
M: 4/4
K: Eminor
e2 dB de B2|B/A/GAE GE z E|G ~E3 G z GB|A ~E3 GAB/c/d|
ee dB dd B z|B/A/GAE GE z E|G ~E3 G2 GB|1 AG E4 A/B/d:|2 AG E4 z2||
A2 AA- AA GE|GAAG AG B2|A3 A- A2 GE|GAAG ABdg|
e4 zedB|deed edga|1 e3 e- e2 dB|d ~B3 AB E2:|2 e3 e- e3 d|ez z2 g2 ag||
b2 e2 bbag|g ~e3- e2 dB|AB e z eedg-|ge2 z ggag|
b2 e2 ebag|g ~e3- e2 dB|ABd z e2 ge-|e2 z2 g2 ag|
b2 e2 ebag|g ~e3- e2 dB|AB e z eedg-|ge z2 e z2 e|
Bdeg ageB|dez B de z E|EBed B/A/G E2|E8||

